X:1
T:Title
%%score { ( 1 3 ) | ( 2 4 ) }
L:1/8
M:4/4
K:G
V:1 treble nm="Grand Piano"
V:3 treble 
V:2 treble 
V:4 treble 
V:1
 z4 z2[Q:1/4=100] D2 | G G2 A B2 G2 | [EA][EG][DF][CE] [B,D]4 | [B,D][B,D][B,G][CA] [DB]2 [B,G]2 | %4
 [DG][DG][CF][B,G] A4 | DD[DG][DA] [DB]2 [B,DG]2 | [EA][EG][DF][CE] [B,D]4 | DEFA c2 F2 | %8
[M:3/4] [B,DG]6 |[M:1/4] D2 |[M:4/4] z B3- B2 z2 | z G3- G2 z2 | [DB]3 [DB] [DG]2 [CF][B,G] | %13
[M:3/4] [DA]6[K:bass] |[M:1/4][K:treble] D2 |[M:4/4] z B3- B2 z2 | z G3- G2 z2 | DEFA c2 F2 | %18
[M:3/4] [B,DG]6 |] %19
V:2
 z4 z2 [G,B,]2 | [G,B,D] [G,B,D]2 [G,CD] [G,DG]2[K:bass] [G,B,D]2 | %2
 [C,C][C,C][C,C][C,G,] [G,,G,]4 | [G,,G,][G,,G,][G,,G,][G,,G,] [G,,G,]2 [G,,D,]2 | %4
 [B,,G,][B,,G,][A,,D,][G,,G,] [D,F,D]4 | [D,F,][C,A,][B,,G,][A,,F,] [G,,G,]2 G,,2 | %6
 [C,C][C,C][C,C][C,G,] [G,,G,]4 | [D,F,][D,G,D][D,A,D][D,F,D] [D,A,D]2 [D,CD]2 |[M:3/4] G,,6 | %9
[M:1/4] B,2 |[M:4/4] B, D3- D2 B,2 | z E3- E2 z2 | [G,,G,]3 [G,,G,] [B,,G,]2 [A,,D,][G,,G,] | %13
[M:3/4] [D,F,]2 D,2 D,2 |[M:1/4][K:treble] C2 |[M:4/4] B, D3- D2 B,2 | z E3- E2 z2 | %17
 [D,F,][D,G,D][D,A,D][D,F,D] [D,A,D]2 [D,CD]2 |[M:3/4] G,,6 |] %19
V:3
 x8 | x8 | x8 | x8 | x8 | x8 | x8 | x8 |[M:3/4] x6 |[M:1/4] x2 |[M:4/4] .D2 G,2 G,<G, G2 | %11
 .E2 .G,2 .G,<.G, z2 | x8 |[M:3/4] z2[K:bass] F,2 F,2 |[M:1/4][K:treble] x2 | %15
[M:4/4] .D2 G,2 G,<G, G2 | .E2 .G,2 .G,<.G, z2 | x8 |[M:3/4] x6 |] %19
V:4
 x8 | x6[K:bass] x2 | x8 | x8 | x8 | x8 | x8 | x8 |[M:3/4] x6 |[M:1/4] x2 |[M:4/4] x8 | %11
 .C2 .C,2 .C,<.C, z2 | x8 |[M:3/4] x6 |[M:1/4][K:treble] x2 |[M:4/4] x8 | .C2 .C,2 .C,<.C, z2 | %17
 x8 |[M:3/4] x6 |] %19

